assets/icons/24px/outline/activity-24px.svg

<svg width="24" height="24" viewBox="0 0 24 24" fill="none" xmlns="http://www.w3.org/2000/svg">
<path d="M2.99996 11.0001C2.44768 11.0001 1.99998 11.4479 2 12.0001C2.00002 12.5524 2.44775 13.0001 3.00004 13.0001L2.99996 11.0001ZM9 3L9.96352 2.73236C9.84581 2.3086 9.46506 2.01149 9.0254 2.00032C8.58574 1.98915 8.19039 2.26654 8.05132 2.68377L9 3ZM14 21L13.0365 21.2676C13.1542 21.6914 13.5349 21.9885 13.9746 21.9997C14.4143 22.0108 14.8096 21.7335 14.9487 21.3162L14 21ZM21 13C21.5523 13 22 12.5523 22 12C22 11.4477 21.5523 11 21 11V13ZM17.2721 12.3775L17.8568 13.1888L17.2721 12.3775ZM5.72791 11.6225L5.14319 10.8113L5.72791 11.6225ZM7.86034 9.58124L9.94868 3.31623L8.05132 2.68377L5.96298 8.94879L7.86034 9.58124ZM8.03648 3.26764L13.0365 21.2676L14.9635 20.7324L9.96352 2.73236L8.03648 3.26764ZM14.9487 21.3162L17.037 15.0513L15.1396 14.4189L13.0513 20.6838L14.9487 21.3162ZM19.883 13H21V11H19.883V13ZM3.00004 13.0001L3.11711 13.0001L3.11704 11.0001L2.99996 11.0001L3.00004 13.0001ZM17.037 15.0513C17.2643 14.3694 17.4096 13.9382 17.5555 13.6247C17.6905 13.3344 17.7842 13.2411 17.8568 13.1888L16.6874 11.5663C16.2362 11.8915 15.958 12.3169 15.7421 12.7811C15.537 13.2219 15.3523 13.7807 15.1396 14.4189L17.037 15.0513ZM19.883 11C19.2103 11 18.6219 10.9985 18.1388 11.0536C17.6301 11.1117 17.1386 11.2411 16.6874 11.5663L17.8568 13.1888C17.9294 13.1365 18.0476 13.077 18.3656 13.0407C18.7092 13.0015 19.1643 13 19.883 13V11ZM5.96298 8.94879C5.7357 9.63063 5.59036 10.0619 5.4445 10.3754C5.3095 10.6656 5.21576 10.759 5.14319 10.8113L6.31264 12.4337C6.76382 12.1085 7.04196 11.6832 7.25789 11.219C7.46297 10.7781 7.64763 10.2194 7.86034 9.58124L5.96298 8.94879ZM3.11711 13.0001C3.78978 13.0001 4.37824 13.0016 4.86132 12.9464C5.36995 12.8883 5.86146 12.759 6.31264 12.4337L5.14319 10.8113C5.07062 10.8636 4.9524 10.923 4.63439 10.9593C4.29084 10.9986 3.83577 11.0001 3.11704 11.0001L3.11711 13.0001Z" fill="white"/>
</svg>

<svg width="24" height="24" fill="none" xmlns="http://www.w3.org/2000/svg"><path d="M3 11a1 1 0 0 0 0 2v-2zm6-8l.964-.268a1 1 0 0 0-1.913-.048L9 3zm5 18l-.963.268a1 1 0 0 0 1.912.048L14 21zm7-8a1 1 0 1 0 0-2v2zm-3.728-.623l.585.812-.585-.812zm-11.544-.755l-.585-.81.585.81zm2.132-2.04L9.95 3.315 8.05 2.684 5.963 8.949l1.897.632zm.176-6.314l5 18 1.928-.536-5-18-1.928.536zm6.913 18.048l2.088-6.265-1.897-.632-2.089 6.265 1.898.632zM19.883 13H21v-2h-1.117v2zM3 13h.117v-2H3v2zm14.037 2.051c.227-.682.373-1.113.518-1.426.136-.29.23-.384.302-.436l-1.17-1.623c-.45.325-.729.75-.945 1.215-.205.44-.39 1-.602 1.638l1.897.632zM19.883 11c-.673 0-1.261-.002-1.744.054-.509.058-1 .187-1.452.512l1.17 1.623c.072-.053.19-.112.509-.148.343-.04.798-.041 1.517-.041v-2zM5.963 8.949c-.227.682-.373 1.113-.519 1.426-.135.29-.228.384-.3.436l1.169 1.623c.45-.325.729-.75.945-1.215.205-.44.39-1 .602-1.638L5.963 8.95zM3.117 13c.673 0 1.261.002 1.744-.054.509-.058 1-.187 1.452-.512l-1.17-1.623c-.072.053-.19.112-.509.148-.343.04-.798.041-1.517.041v2z" fill="#fff"/></svg>
